X:171
T:Spithead Fleet. JJo8.171
B:J.Johnson Choice Collection Vol 8 1758
Z:vmp.Simon Wilson 2013 www.village-music-project.org.uk
M:6/8
L:1/8
Q:3/8=110
K:Gm
|:G/F/|DGA Bcd|cAFTF2A|BGA Bdg|fdB TB2b|bag fdd|fdd ecc|dg2fdc|BGGG2:|
|:d|gfg def|BcdTf2d|gfe dcB|gfed2a|bag fdd|fdd ecc|dg2fdc|BGGG2:|
